widgets/button.svg

<?xml version="1.0" encoding="UTF-8" standalone="no"?>
<svg id="svg2" xmlns:rdf="http://www.w3.org/1999/02/22-rdf-syntax-ns#" xmlns="http://www.w3.org/2000/svg" height="44" width="50" version="1.1" xmlns:cc="http://creativecommons.org/ns#" xmlns:xlink="http://www.w3.org/1999/xlink" xmlns:dc="http://purl.org/dc/elements/1.1/">
	<defs id="defs4">
		<linearGradient id="linearGradient4938">
			<stop id="stop4940" style="stop-color:#e0e0e0;stop-opacity:.75294" offset="0"/>
			<stop id="stop4942" style="stop-color:#e0e0e0" offset="1"/>
		</linearGradient>
		<linearGradient id="linearGradient3218" y2="3" xlink:href="#linearGradient4938" gradientUnits="userSpaceOnUse" x2="25" gradientTransform="matrix(.068182 0 0 1 46.795 -44)" y1="17" x1="25"/>
		<linearGradient id="linearGradient3222" y2="3" xlink:href="#linearGradient4938" gradientUnits="userSpaceOnUse" x2="25" gradientTransform="translate(-2.1186e-8 -44)" y1="17" x1="25"/>
		<linearGradient id="linearGradient3224" y2="3" xlink:href="#linearGradient4938" gradientUnits="userSpaceOnUse" x2="25" gradientTransform="matrix(.068182 0 0 1 46.795 -.0000041507)" y1="17" x1="25"/>
		<linearGradient id="linearGradient3226" y2="3" xlink:href="#linearGradient4938" gradientUnits="userSpaceOnUse" x2="25" gradientTransform="matrix(.068182 0 0 1 -.20455 -.0000041507)" y1="17" x1="25"/>
		<linearGradient id="linearGradient3228" y2="3" xlink:href="#linearGradient4938" gradientUnits="userSpaceOnUse" x2="25" gradientTransform="translate(-2.1186e-8 -.00000412)" y1="17" x1="25"/>
		<linearGradient id="linearGradient3949" y2="3" xlink:href="#linearGradient4938" gradientUnits="userSpaceOnUse" x2="25" gradientTransform="matrix(.068182 0 0 1 -.20455 -44)" y1="17" x1="25"/>
	</defs>
	<metadata id="metadata7">
		<rdf:RDF>
			<cc:Work rdf:about="">
				<dc:format>image/svg+xml</dc:format>
				<dc:type rdf:resource="http://purl.org/dc/dcmitype/StillImage"/>
				<dc:title/>
				<dc:creator>
					<cc:Agent>
						<dc:title>obnosim</dc:title>
					</cc:Agent>
				</dc:creator>
				<cc:license rdf:resource="http://creativecommons.org/licenses/by-nc-sa/3.0/"/>
			</cc:Work>
			<cc:License rdf:about="http://creativecommons.org/licenses/by-nc-sa/3.0/">
				<cc:permits rdf:resource="http://creativecommons.org/ns#Reproduction"/>
				<cc:permits rdf:resource="http://creativecommons.org/ns#Distribution"/>
				<cc:requires rdf:resource="http://creativecommons.org/ns#Notice"/>
				<cc:requires rdf:resource="http://creativecommons.org/ns#Attribution"/>
				<cc:prohibits rdf:resource="http://creativecommons.org/ns#CommercialUse"/>
				<cc:permits rdf:resource="http://creativecommons.org/ns#DerivativeWorks"/>
				<cc:requires rdf:resource="http://creativecommons.org/ns#ShareAlike"/>
			</cc:License>
		</rdf:RDF>
	</metadata>
	<rect id="hint-stretch-borders" style="fill:#008000" ry="0" height="5" width="5" y="-13" x="-16"/>
	<rect id="pressed-center" style="opacity:.375;fill:url(#linearGradient3222)" transform="scale(1,-1)" height="14" width="44" y="-41" x="3"/>
	<g id="normal-topleft" style="opacity:.875">
		<path id="path4948" style="fill:#e0e0e0" d="m3 0c-1.662 0-3 1.338-3 3h3v-3z"/>
		<path id="path4960" style="opacity:.5;fill:#ffffff" d="m3 0c-1.662 0-3 1.338-3 3 0-1.108 1.338-2 3-2v-1z"/>
	</g>
	<rect id="normal-center" style="opacity:.875;fill:url(#linearGradient3228)" height="14" width="44" y="3" x="3"/>
	<g id="normal-topright" style="opacity:.875">
		<path id="path4950" style="fill:#e0e0e0" d="m47 0c1.662 0 3 1.338 3 3h-3v-3z"/>
		<path id="path4962" style="opacity:.5;fill:#ffffff" d="m47 0v1c1.662 0 3 .892 3 2 0-1.662-1.338-3-3-3z"/>
	</g>
	<g id="normal-bottomleft" style="opacity:.875">
		<path id="path4954" style="fill-opacity:.75294;fill:#e0e0e0" d="m3 20c-1.662 0-3-1.338-3-3h3v3z"/>
		<path id="path4983" style="opacity:.16450;fill:#000000" d="m3 20c-1.662 0-3-1.338-3-3 0 1.108 1.338 2 3 2v1z"/>
	</g>
	<g id="normal-bottomright" style="opacity:.875">
		<path id="path4956" style="fill-opacity:.75294;fill:#e0e0e0" d="m47 20c1.662 0 3-1.338 3-3h-3v3z"/>
		<path id="path4985" style="opacity:.16450;fill:#000000" d="m47 20v-1c1.662 0 3-.892 3-2 0 1.662-1.338 3-3 3z"/>
	</g>
	<g id="normal-top" style="opacity:.875">
		<rect id="rect4952" style="fill:#e0e0e0" transform="rotate(90)" height="44" width="3" y="-47" x="0"/>
		<path id="rect4964" style="opacity:.5;fill:#ffffff" d="m3 0v1h44v-1h-44z"/>
	</g>
	<g id="normal-left">
		<rect id="rect3862" style="opacity:.875;fill:url(#linearGradient3226)" height="14" width="3" y="3" x="-1.7881e-7"/>
	</g>
	<g id="normal-bottom" style="opacity:.875">
		<rect id="rect4958" style="fill:#e0e0e0;fill-opacity:.75294" transform="matrix(0,-1,-1,0,0,0)" height="44" width="3" y="-47" x="-20"/>
		<path id="path4987" style="opacity:0.165;fill:#000000" d="m3 20v-1h44v1h-44z"/>
	</g>
	<g id="normal-right">
		<rect id="rect3892" style="opacity:.875;fill:url(#linearGradient3224)" height="14" width="3" y="3" x="47"/>
	</g>
	<g id="pressed-topleft">
		<path id="path5099" style="opacity:.375;fill-opacity:.75294;fill:#e0e0e0" d="m3 24c-1.662 0-3 1.338-3 3h3v-3z"/>
		<path id="path3898" style="opacity:0.188;color:#000000;fill-opacity:.75294;fill:#000000" d="m5 23c-1.6569 0-3 1.343-3 3 0-.552 1.3431-1 3-1v-2z" transform="translate(-2 1)"/>
	</g>
	<g id="pressed-topright">
		<path id="path5105" style="opacity:.375;fill-opacity:.75294;fill:#e0e0e0" d="m47 24c1.662 0 3 1.338 3 3h-3v-3z"/>
		<path id="path3911" style="opacity:0.188;color:#000000;fill-opacity:.75294;fill:#000000" d="m49 23v2c1.6569 0 3 .44772 3 1 0-1.6569-1.3431-3-3-3z" transform="translate(-2 1)"/>
	</g>
	<g id="pressed-bottomleft" style="opacity:.375" transform="matrix(1 0 0 -1 1.7881e-7 44)">
		<path id="path5081" style="fill:#e0e0e0" d="m3 0c-1.662 0-3 1.338-3 3h3v-3z"/>
		<path id="path5083" style="opacity:.5;fill:#ffffff" d="m3 0c-1.662 0-3 1.338-3 3 0-1.108 1.338-2 3-2v-1z"/>
	</g>
	<g id="pressed-bottomright" style="opacity:.375" transform="matrix(1 0 0 -1 1.7881e-7 44)">
		<path id="path5087" style="fill:#e0e0e0" d="m47 0c1.662 0 3 1.338 3 3h-3v-3z"/>
		<path id="path5089" style="opacity:.5;fill:#ffffff" d="m47 0v1c1.662 0 3 .892 3 2 0-1.662-1.338-3-3-3z"/>
	</g>
	<g id="pressed-top">
		<rect id="rect5111" style="opacity:.375;fill:#e0e0e0;fill-opacity:.75294" transform="rotate(90)" height="44" width="3" y="-47" x="24"/>
		<path id="rect5129" style="opacity:0.188;fill:#000000;fill-opacity:.75294" d="m3 24v2h44v-2h-44z"/>
	</g>
	<g id="pressed-left">
		<rect id="rect3963" style="opacity:.375;fill:url(#linearGradient3949)" transform="scale(1,-1)" height="14" width="3" y="-41" x="-1.7881e-7"/>
	</g>
	<g id="pressed-bottom" style="opacity:.375" transform="matrix(1 0 0 -1 1.7881e-7 44)">
		<rect id="rect5093" style="fill:#e0e0e0" transform="rotate(90)" height="44" width="3" y="-47" x="0"/>
		<path id="path5095" style="opacity:.5;fill:#ffffff" d="m3 0v1h44v-1h-44z"/>
	</g>
	<g id="pressed-right">
		<rect id="rect3971" style="opacity:.375;fill:url(#linearGradient3218)" transform="scale(1,-1)" height="14" width="3" y="-41" x="47"/>
	</g>
</svg>

<?xml version="1.0" encoding="UTF-8" standalone="no"?>
<!-- Created with Inkscape (http://www.inkscape.org/) -->

<svg
   xmlns:dc="http://purl.org/dc/elements/1.1/"
   xmlns:cc="http://creativecommons.org/ns#"
   xmlns:rdf="http://www.w3.org/1999/02/22-rdf-syntax-ns#"
   xmlns:svg="http://www.w3.org/2000/svg"
   xmlns="http://www.w3.org/2000/svg"
   xmlns:xlink="http://www.w3.org/1999/xlink"
   xmlns:sodipodi="http://sodipodi.sourceforge.net/DTD/sodipodi-0.dtd"
   xmlns:inkscape="http://www.inkscape.org/namespaces/inkscape"
   version="1.1"
   width="50"
   height="44"
   id="svg2"
   inkscape:version="0.91 r13725"
   sodipodi:docname="button.svg">
  <sodipodi:namedview
     pagecolor="#323232"
     bordercolor="#666666"
     borderopacity="1"
     objecttolerance="10"
     gridtolerance="10"
     guidetolerance="10"
     inkscape:pageopacity="1"
     inkscape:pageshadow="2"
     inkscape:window-width="1920"
     inkscape:window-height="1056"
     id="namedview73"
     showgrid="true"
     inkscape:showpageshadow="false"
     showborder="false"
     inkscape:zoom="8"
     inkscape:cx="42.611704"
     inkscape:cy="29.214663"
     inkscape:window-x="0"
     inkscape:window-y="-3"
     inkscape:window-maximized="1"
     inkscape:current-layer="svg2"
     fit-margin-top="0"
     fit-margin-left="0"
     fit-margin-right="0"
     fit-margin-bottom="0"
     showguides="true"
     inkscape:guide-bbox="true">
    <inkscape:grid
       type="xygrid"
       id="grid3050"
       empspacing="4"
       visible="true"
       enabled="true"
       snapvisiblegridlinesonly="true"
       originx="-0.99999982px"
       originy="-2px" />
  </sodipodi:namedview>
  <defs
     id="defs4">
    <linearGradient
       id="linearGradient4938">
      <stop
         id="stop4940"
         style="stop-color:#e0e0e0;stop-opacity:0.75294119"
         offset="0" />
      <stop
         id="stop4942"
         style="stop-color:#e0e0e0;stop-opacity:1"
         offset="1" />
    </linearGradient>
    <linearGradient
       x1="25"
       y1="17"
       x2="25"
       y2="3"
       id="linearGradient3218"
       xlink:href="#linearGradient4938"
       gradientUnits="userSpaceOnUse"
       gradientTransform="matrix(0.06818182,0,0,1,46.79545,-43.999996)" />
    <linearGradient
       x1="25"
       y1="17"
       x2="25"
       y2="3"
       id="linearGradient3222"
       xlink:href="#linearGradient4938"
       gradientUnits="userSpaceOnUse"
       gradientTransform="translate(-2.1186066e-8,-43.999996)" />
    <linearGradient
       x1="25"
       y1="17"
       x2="25"
       y2="3"
       id="linearGradient3224"
       xlink:href="#linearGradient4938"
       gradientUnits="userSpaceOnUse"
       gradientTransform="matrix(0.06818182,0,0,1,46.79545,-4.1507422e-6)" />
    <linearGradient
       x1="25"
       y1="17"
       x2="25"
       y2="3"
       id="linearGradient3226"
       xlink:href="#linearGradient4938"
       gradientUnits="userSpaceOnUse"
       gradientTransform="matrix(0.06818182,0,0,1,-0.20455019,-4.1507422e-6)" />
    <linearGradient
       x1="25"
       y1="17"
       x2="25"
       y2="3"
       id="linearGradient3228"
       xlink:href="#linearGradient4938"
       gradientUnits="userSpaceOnUse"
       gradientTransform="translate(-2.1186066e-8,-4.12e-6)" />
    <linearGradient
       inkscape:collect="always"
       xlink:href="#linearGradient4938"
       id="linearGradient3949"
       gradientUnits="userSpaceOnUse"
       gradientTransform="matrix(0.06818182,0,0,1,-0.20455019,-43.999996)"
       x1="25"
       y1="17"
       x2="25"
       y2="3" />
  </defs>
  <metadata
     id="metadata7">
    <rdf:RDF>
      <cc:Work
         rdf:about="">
        <dc:format>image/svg+xml</dc:format>
        <dc:type
           rdf:resource="http://purl.org/dc/dcmitype/StillImage" />
        <dc:title />
        <dc:creator>
          <cc:Agent>
            <dc:title>obnosim</dc:title>
          </cc:Agent>
        </dc:creator>
        <cc:license
           rdf:resource="http://creativecommons.org/licenses/by-nc-sa/3.0/" />
      </cc:Work>
      <cc:License
         rdf:about="http://creativecommons.org/licenses/by-nc-sa/3.0/">
        <cc:permits
           rdf:resource="http://creativecommons.org/ns#Reproduction" />
        <cc:permits
           rdf:resource="http://creativecommons.org/ns#Distribution" />
        <cc:requires
           rdf:resource="http://creativecommons.org/ns#Notice" />
        <cc:requires
           rdf:resource="http://creativecommons.org/ns#Attribution" />
        <cc:prohibits
           rdf:resource="http://creativecommons.org/ns#CommercialUse" />
        <cc:permits
           rdf:resource="http://creativecommons.org/ns#DerivativeWorks" />
        <cc:requires
           rdf:resource="http://creativecommons.org/ns#ShareAlike" />
      </cc:License>
    </rdf:RDF>
  </metadata>
  <rect
     width="5"
     height="5"
     ry="0"
     x="-16"
     y="-13.000002"
     id="hint-stretch-borders"
     style="fill:#008000;fill-opacity:1;fill-rule:nonzero;stroke:none" />
  <rect
     width="44"
     height="14"
     x="2.9999993"
     y="-41.000031"
     transform="scale(1,-1)"
     id="pressed-center"
     style="opacity:0.375;fill:url(#linearGradient3222);fill-opacity:1;fill-rule:nonzero;stroke:none" />
  <g
     id="normal-topleft"
     style="opacity:0.875">
    <path
       inkscape:connector-curvature="0"
       d="M 3,0 C 1.338,0 0,1.338 0,3 L 3,3 3,0 z"
       id="path4948"
       style="fill:#e0e0e0;fill-opacity:1;stroke:none" />
    <path
       inkscape:connector-curvature="0"
       d="M 3,0 C 1.338,0 0,1.338 0,3 0,1.892 1.338,1 3,1 L 3,0 z"
       id="path4960"
       style="opacity:0.5;fill:#ffffff;fill-opacity:1;stroke:none" />
  </g>
  <rect
     width="44"
     height="14"
     x="2.9999993"
     y="2.9999998"
     id="normal-center"
     style="opacity:0.875;fill:url(#linearGradient3228);fill-opacity:1;fill-rule:nonzero;stroke:none" />
  <g
     id="normal-topright"
     style="opacity:0.875">
    <path
       inkscape:connector-curvature="0"
       d="m 47,0 c 1.662,0 3,1.338 3,3 l -3,0 0,-3 z"
       id="path4950"
       style="fill:#e0e0e0;fill-opacity:1;stroke:none" />
    <path
       inkscape:connector-curvature="0"
       d="m 47,0 0,1 c 1.662,0 3,0.892 3,2 0,-1.662 -1.338,-3 -3,-3 z"
       id="path4962"
       style="opacity:0.5;fill:#ffffff;fill-opacity:1;stroke:none" />
  </g>
  <g
     id="normal-bottomleft"
     style="opacity:0.875">
    <path
       inkscape:connector-curvature="0"
       d="M 3,20 C 1.338,20 0,18.662 0,17 l 3,0 0,3 z"
       id="path4954"
       style="fill:#e0e0e0;fill-opacity:0.75294118;stroke:none" />
    <path
       inkscape:connector-curvature="0"
       d="m 3,20 c -1.662,0 -3,-1.338 -3,-3 0,1.108 1.338,2 3,2 l 0,1 z"
       id="path4983"
       style="opacity:0.16450004;fill:#000000;fill-opacity:1;stroke:none" />
  </g>
  <g
     id="normal-bottomright"
     style="opacity:0.875">
    <path
       inkscape:connector-curvature="0"
       d="m 47,20 c 1.662,0 3,-1.338 3,-3 l -3,0 0,3 z"
       id="path4956"
       style="fill:#e0e0e0;fill-opacity:0.75294118;stroke:none" />
    <path
       inkscape:connector-curvature="0"
       d="m 47,20 0,-1 c 1.662,0 3,-0.892 3,-2 0,1.662 -1.338,3 -3,3 z"
       id="path4985"
       style="opacity:0.16450004;fill:#000000;fill-opacity:1;stroke:none" />
  </g>
  <g
     id="normal-top"
     style="opacity:0.875">
    <rect
       width="3"
       height="44"
       x="0"
       y="-47"
       transform="matrix(0,1,-1,0,0,0)"
       id="rect4952"
       style="fill:#e0e0e0;fill-opacity:1;fill-rule:nonzero;stroke:none" />
    <path
       inkscape:connector-curvature="0"
       d="M 3,0 3,1 47,1 47,0 3,0 z"
       id="rect4964"
       style="opacity:0.5;fill:#ffffff;fill-opacity:1;fill-rule:nonzero;stroke:none" />
  </g>
  <g
     id="normal-left">
    <rect
       style="opacity:0.875;fill:url(#linearGradient3226);fill-opacity:1;fill-rule:nonzero;stroke:none"
       id="rect3862"
       y="2.9999986"
       x="-1.7881393e-07"
       height="14"
       width="3" />
  </g>
  <g
     id="normal-bottom"
     style="opacity:0.875">
    <rect
       width="3"
       height="44"
       x="-20"
       y="-47"
       transform="matrix(0,-1,-1,0,0,0)"
       id="rect4958"
       style="fill:#e0e0e0;fill-opacity:0.75294118;fill-rule:nonzero;stroke:none" />
    <path
       inkscape:connector-curvature="0"
       d="m 3,20 0,-1 44,0 0,1 -44,0 z"
       id="path4987"
       style="opacity:0.16499999;fill:#000000;fill-opacity:1;fill-rule:nonzero;stroke:none" />
  </g>
  <g
     id="normal-right">
    <rect
       style="opacity:0.875;fill:url(#linearGradient3224);fill-opacity:1;fill-rule:nonzero;stroke:none"
       id="rect3892"
       y="2.9999986"
       x="47"
       height="14"
       width="3" />
  </g>
  <g
     id="pressed-topleft">
    <path
       inkscape:connector-curvature="0"
       d="m 3,24 c -1.662,0 -3,1.338 -3,3 l 3,0 0,-3 z"
       id="path5099"
       style="opacity:0.375;fill:#e0e0e0;fill-opacity:0.75294118;stroke:none" />
    <path
       style="opacity:0.18800001;color:#000000;fill:#000000;fill-opacity:0.75294118;fill-rule:nonzero;stroke:none;stroke-width:1px;marker:none;visibility:visible;display:inline;overflow:visible;enable-background:accumulate"
       d="M 5,23 C 3.3431458,23 2,24.343146 2,26 2,25.447715 3.3431458,25 5,25 L 5,23 z"
       transform="translate(-2,0.99999998)"
       id="path3898"
       inkscape:connector-curvature="0" />
  </g>
  <g
     id="pressed-topright">
    <path
       inkscape:connector-curvature="0"
       d="m 47,24 c 1.662,0 3,1.338 3,3 l -3,0 0,-3 z"
       id="path5105"
       style="opacity:0.375;fill:#e0e0e0;fill-opacity:0.75294118;stroke:none" />
    <path
       style="opacity:0.18800001;color:#000000;fill:#000000;fill-opacity:0.75294118;fill-rule:nonzero;stroke:none;stroke-width:1px;marker:none;visibility:visible;display:inline;overflow:visible;enable-background:accumulate"
       d="m 49,23 0,2 c 1.656854,0 3,0.447715 3,1 0,-1.656854 -1.343146,-3 -3,-3 z"
       transform="translate(-2,0.99999998)"
       id="path3911"
       inkscape:connector-curvature="0" />
  </g>
  <g
     transform="matrix(1,0,0,-1,1.7881393e-7,44)"
     id="pressed-bottomleft"
     style="opacity:0.375">
    <path
       inkscape:connector-curvature="0"
       d="M 3,0 C 1.338,0 0,1.338 0,3 L 3,3 3,0 z"
       id="path5081"
       style="fill:#e0e0e0;fill-opacity:1;stroke:none" />
    <path
       inkscape:connector-curvature="0"
       d="M 3,0 C 1.338,0 0,1.338 0,3 0,1.892 1.338,1 3,1 L 3,0 z"
       id="path5083"
       style="opacity:0.5;fill:#ffffff;fill-opacity:1;stroke:none" />
  </g>
  <g
     transform="matrix(1,0,0,-1,1.7881393e-7,44)"
     id="pressed-bottomright"
     style="opacity:0.375">
    <path
       inkscape:connector-curvature="0"
       d="m 47,0 c 1.662,0 3,1.338 3,3 l -3,0 0,-3 z"
       id="path5087"
       style="fill:#e0e0e0;fill-opacity:1;stroke:none" />
    <path
       inkscape:connector-curvature="0"
       d="m 47,0 0,1 c 1.662,0 3,0.892 3,2 0,-1.662 -1.338,-3 -3,-3 z"
       id="path5089"
       style="opacity:0.5;fill:#ffffff;fill-opacity:1;stroke:none" />
  </g>
  <g
     id="pressed-top">
    <rect
       width="3"
       height="44"
       x="24"
       y="-47"
       transform="matrix(0,1,-1,0,0,0)"
       id="rect5111"
       style="opacity:0.375;fill:#e0e0e0;fill-opacity:0.75294118;fill-rule:nonzero;stroke:none" />
    <path
       inkscape:connector-curvature="0"
       d="m 3,24 0,2 44,0 0,-2 -44,0 z"
       id="rect5129"
       style="opacity:0.18800001;fill:#000000;fill-opacity:0.75294118;fill-rule:nonzero;stroke:none" />
  </g>
  <g
     id="pressed-left">
    <rect
       style="opacity:0.375;fill:url(#linearGradient3949);fill-opacity:1;fill-rule:nonzero;stroke:none"
       id="rect3963"
       transform="scale(1,-1)"
       y="-41"
       x="-1.7881393e-07"
       height="14"
       width="3" />
  </g>
  <g
     transform="matrix(1,0,0,-1,1.7881393e-7,44)"
     id="pressed-bottom"
     style="opacity:0.375">
    <rect
       width="3"
       height="44"
       x="0"
       y="-47"
       transform="matrix(0,1,-1,0,0,0)"
       id="rect5093"
       style="fill:#e0e0e0;fill-opacity:1;fill-rule:nonzero;stroke:none" />
    <path
       inkscape:connector-curvature="0"
       d="M 3,0 3,1 47,1 47,0 3,0 z"
       id="path5095"
       style="opacity:0.5;fill:#ffffff;fill-opacity:1;fill-rule:nonzero;stroke:none" />
  </g>
  <g
     id="pressed-right">
    <rect
       style="opacity:0.375;fill:url(#linearGradient3218);fill-opacity:1;fill-rule:nonzero;stroke:none"
       id="rect3971"
       transform="scale(1,-1)"
       y="-41"
       x="47"
       height="14"
       width="3" />
  </g>
</svg>
